Simply-Cyan-Circles/scalable/apps/preferences-desktop-launch-feedback.svg

<svg xmlns="http://www.w3.org/2000/svg" width="48" height="48" viewBox="0 0 12.7 12.7"><path d="M6.34.07a6.29 6.29 0 0 0-6.29 6.3 6.29 6.29 0 0 0 6.3 6.28 6.29 6.29 0 0 0 6.28-6.29A6.29 6.29 0 0 0 6.34.07zM6.32 1l.01.01a5.4 5.4 0 0 1 5.4 5.4 5.4 5.4 0 0 1-5.4 5.41 5.4 5.4 0 0 1-5.41-5.4A5.4 5.4 0 0 1 6.32 1zm3.52 1.86c-.33.01-.7.16-.98.35-.74.49-1.56 1.27-2.3 2A8.32 8.32 0 0 0 2.4 7.27l-.01.02v.04c0 .06.1.13.16.13h.02c.67-.22 1.5-.44 2.17-.33-.1.14-.21.31-.33.52-.1.17-.18.32-.22.47-.3.1-.71.3-.97.6-.33.37-.42.79-.42 1.37a2.07 2.07 0 0 0 1.92-1.57 5.3 5.3 0 0 0 .9-.51c.1.66-.12 1.49-.34 2.17v.02c0 .07.08.15.14.16h.02l.04-.01a8.32 8.32 0 0 0 2.05-4.17c.74-.73 1.52-1.55 2-2.29.2-.3.36-.69.35-1.03h-.04zM4.18 8.18a.4.4 0 0 0 0 .06.54.54 0 0 0-.12.1c-.13.15-.3.39-.34.61.25-.02.57-.14.72-.27a.5.5 0 0 0 .1-.11c.05 0 .1-.02.14-.04a1 1 0 0 1-.31.52c-.26.22-.7.47-1.12.5a2 2 0 0 1 .42-1.08c.13-.15.33-.24.5-.3z" fill="#5beedc"/><path d="M8.88 3.18c-.26.18-.5.36-.74.56l.4.44.68-.66zm-.34 1l-.74.75.45.5c.25-.26.5-.52.72-.8zm-1.19.26c-.28.25-.54.52-.78.77.08-.03.17.02.15.18l.3.31.78-.77zM7.02 5.7l-.83.84.43.47c.3-.27.59-.64.87-.81zm-1.1.55l-.41.42c-.17.16-.4.33-.64.39l-.05.07.38.38.98-.97zM5.2 7.51l-.56.56.34.32c.22-.13.44-.24.64-.4l-.04-.1z" opacity=".75" fill="#fff" fill-opacity=".95" fill-rule="evenodd"/></svg>

<?xml version="1.0" encoding="UTF-8" standalone="no"?>
<svg
   xmlns:dc="http://purl.org/dc/elements/1.1/"
   xmlns:cc="http://creativecommons.org/ns#"
   xmlns:rdf="http://www.w3.org/1999/02/22-rdf-syntax-ns#"
   xmlns:svg="http://www.w3.org/2000/svg"
   xmlns="http://www.w3.org/2000/svg"
   xmlns:sodipodi="http://sodipodi.sourceforge.net/DTD/sodipodi-0.dtd"
   xmlns:inkscape="http://www.inkscape.org/namespaces/inkscape"
   width="48"
   height="48"
   viewBox="0 0 12.7 12.7"
   version="1.1"
   id="svg6"
   sodipodi:docname="preferences-desktop-launch-feedback.svg"
   inkscape:version="0.92.4 (5da689c313, 2019-01-14)">
  <metadata
     id="metadata12">
    <rdf:RDF>
      <cc:Work
         rdf:about="">
        <dc:format>image/svg+xml</dc:format>
        <dc:type
           rdf:resource="http://purl.org/dc/dcmitype/StillImage" />
        <dc:title></dc:title>
      </cc:Work>
    </rdf:RDF>
  </metadata>
  <defs
     id="defs10" />
  <sodipodi:namedview
     pagecolor="#ffffff"
     bordercolor="#666666"
     borderopacity="1"
     objecttolerance="10"
     gridtolerance="10"
     guidetolerance="10"
     inkscape:pageopacity="0"
     inkscape:pageshadow="2"
     inkscape:window-width="1087"
     inkscape:window-height="480"
     id="namedview8"
     showgrid="false"
     inkscape:zoom="4.9166667"
     inkscape:cx="2.1355932"
     inkscape:cy="24"
     inkscape:window-x="0"
     inkscape:window-y="25"
     inkscape:window-maximized="0"
     inkscape:current-layer="svg6" />
  <path
     d="M 6.34,0.07 A 6.29,6.29 0 0 0 0.05,6.37 6.29,6.29 0 0 0 6.35,12.65 6.29,6.29 0 0 0 12.63,6.36 6.29,6.29 0 0 0 6.34,0.07 Z M 6.32,1 6.33,1.01 a 5.4,5.4 0 0 1 5.4,5.4 5.4,5.4 0 0 1 -5.4,5.41 A 5.4,5.4 0 0 1 0.92,6.42 5.4,5.4 0 0 1 6.32,1 Z M 9.84,2.86 C 9.51,2.87 9.14,3.02 8.86,3.21 8.12,3.7 7.3,4.48 6.56,5.21 A 8.32,8.32 0 0 0 2.4,7.27 L 2.39,7.29 v 0.04 c 0,0.06 0.1,0.13 0.16,0.13 H 2.57 C 3.24,7.24 4.07,7.02 4.74,7.13 4.64,7.27 4.53,7.44 4.41,7.65 4.31,7.82 4.23,7.97 4.19,8.12 3.89,8.22 3.48,8.42 3.22,8.72 2.89,9.09 2.8,9.51 2.8,10.09 A 2.07,2.07 0 0 0 4.72,8.52 5.3,5.3 0 0 0 5.62,8.01 C 5.72,8.67 5.5,9.5 5.28,10.18 v 0.02 c 0,0.07 0.08,0.15 0.14,0.16 H 5.44 L 5.48,10.35 A 8.32,8.32 0 0 0 7.53,6.18 C 8.27,5.45 9.05,4.63 9.53,3.89 9.73,3.59 9.89,3.2 9.88,2.86 Z M 4.18,8.18 a 0.4,0.4 0 0 0 0,0.06 0.54,0.54 0 0 0 -0.12,0.1 C 3.93,8.49 3.76,8.73 3.72,8.95 3.97,8.93 4.29,8.81 4.44,8.68 a 0.5,0.5 0 0 0 0.1,-0.11 c 0.05,0 0.1,-0.02 0.14,-0.04 A 1,1 0 0 1 4.37,9.05 C 4.11,9.27 3.67,9.52 3.25,9.55 A 2,2 0 0 1 3.67,8.47 C 3.8,8.32 4,8.23 4.17,8.17 Z"
     id="path2"
     inkscape:connector-curvature="0"
     style="fill:#5beedc" />
  <path
     d="M 8.88,3.18 C 8.62,3.36 8.38,3.54 8.14,3.74 l 0.4,0.44 0.68,-0.66 z m -0.34,1 -0.74,0.75 0.45,0.5 C 8.5,5.17 8.75,4.91 8.97,4.63 Z M 7.35,4.44 C 7.07,4.69 6.81,4.96 6.57,5.21 6.65,5.18 6.74,5.23 6.72,5.39 L 7.02,5.7 7.8,4.93 Z M 7.02,5.7 6.19,6.54 6.62,7.01 C 6.92,6.74 7.21,6.37 7.49,6.2 Z M 5.92,6.25 5.51,6.67 C 5.34,6.83 5.11,7 4.87,7.06 L 4.82,7.13 5.2,7.51 6.18,6.54 Z M 5.2,7.51 4.64,8.07 4.98,8.39 C 5.2,8.26 5.42,8.15 5.62,7.99 L 5.58,7.89 Z"
     id="path4"
     inkscape:connector-curvature="0"
     style="opacity:0.75;fill:#ffffff;fill-opacity:0.95;fill-rule:evenodd" />
</svg>
